X: 4148
T: Blue Eyes
R: reel
M: 4/4
K: Dminor
|:D2 DE A,D (3DDD|FDFG (3AAA GA|dDcd A_BGA|FDEC A,C (3CCC|
DE A,D (3DDD|FDFG (3AAA GA|dDcd A_BGA|1 FDEC D4:|2 FDEC Dddd||
d2 cd Acde|f (3fff a gecA|A_BAF E3 E|F2DF EC (3CCC|
d2 cd Acde|f (3fff a ge (3eee|decd A_BGA|FDEC D ddd|
d2 cd Acde|f (3fff a gecA|A_BAF E3 E|F2DF EC (3CCC|
DE A,D (3DDD|FDFG (3AAA GA|dDcd A_BGA|FDEC D4||

